packages/dnb-eufemia/assets/icons/file_xls.svg

<svg width="16" height="16" viewBox="0 0 16 16" fill="none" xmlns="http://www.w3.org/2000/svg">
<path d="M10.7181 4.98526C10.9861 5.30109 11.4594 5.33986 11.7753 5.07186C12.0911 4.80385 12.1299 4.33057 11.8619 4.01474L10.7181 4.98526ZM4 15.5927C4.41421 15.5927 4.75 15.2569 4.75 14.8427C4.75 14.4285 4.41421 14.0927 4 14.0927V15.5927ZM2 1.00001L2 1.75001L2 1.00001ZM7.85706 1L7.85706 1.75L7.85706 1ZM8.61953 1.35298L8.04768 1.83825L8.61953 1.35298ZM1.75 13.8427V2.00001H0.25V13.8427H1.75ZM2 1.75001L7.85706 1.75L7.85705 0.250001L2 0.250008L2 1.75001ZM8.04768 1.83825L10.7181 4.98526L11.8619 4.01474L9.19139 0.867723L8.04768 1.83825ZM2 15.5927H4V14.0927H2V15.5927ZM1.75 2.00001C1.75 1.86194 1.86193 1.75001 2 1.75001L2 0.250008C1.0335 0.250009 0.25 1.03351 0.25 2.00001H1.75ZM0.25 13.8427C0.25 14.8092 1.0335 15.5927 2 15.5927V14.0927C1.86193 14.0927 1.75 13.9807 1.75 13.8427H0.25ZM7.85706 1.75C7.93047 1.75 8.00017 1.78227 8.04768 1.83825L9.19139 0.867723C8.85889 0.475884 8.37096 0.25 7.85705 0.250001L7.85706 1.75Z" fill="black"/>
<path d="M7.60785 12.6669L6.26118 10.2669L7.54785 8.00026H6.44785L5.74785 9.40693L5.07451 8.00026H3.93451L5.21451 10.3336L3.87451 12.6669H5.02118L5.73451 11.2403L6.42118 12.6669H7.60785Z" fill="black"/>
<path d="M9.40524 11.8669V8.00026H8.40524V12.6669H11.4719V11.8669H9.40524Z" fill="black"/>
<path d="M14.0293 12.7336C15.056 12.7336 15.7026 12.1803 15.7026 11.3003C15.7026 10.6069 15.276 10.1469 14.4026 9.91359L13.956 9.79359C13.556 9.68693 13.4026 9.54026 13.4026 9.26026C13.4026 8.96026 13.6626 8.76026 14.056 8.76026C14.396 8.76026 14.6693 8.98026 14.736 9.32026L15.5893 8.92026C15.4693 8.33359 14.8426 7.93359 14.0426 7.93359C13.0826 7.93359 12.4026 8.51359 12.4026 9.32026C12.4026 10.0203 12.8093 10.4669 13.6493 10.6936L14.096 10.8136C14.5426 10.9336 14.7026 11.0936 14.7026 11.3936C14.7026 11.7136 14.4493 11.9069 14.0293 11.9069C13.6026 11.9069 13.376 11.7136 13.1493 11.1403L12.316 11.6269C12.5626 12.3669 13.136 12.7336 14.0293 12.7336Z" fill="black"/>
</svg>

<svg width="16" height="16" viewBox="0 0 16 16" fill="none" xmlns="http://www.w3.org/2000/svg"><path d="M10.718 4.985a.75.75 0 0 0 1.144-.97l-1.144.97ZM4 15.593a.75.75 0 0 0 0-1.5v1.5ZM2 1v.75V1Zm5.857 0v.75V1Zm.763.353-.572.485.572-.485Zm-6.87 12.49V2H.25v11.843h1.5ZM2 1.75h5.857V.25H2v1.5Zm6.048.088 2.67 3.147 1.144-.97L9.192.868l-1.144.97ZM2 15.593h2v-1.5H2v1.5ZM1.75 2A.25.25 0 0 1 2 1.75V.25A1.75 1.75 0 0 0 .25 2h1.5ZM.25 13.843c0 .966.784 1.75 1.75 1.75v-1.5a.25.25 0 0 1-.25-.25H.25ZM7.857 1.75a.25.25 0 0 1 .19.088l1.144-.97A1.75 1.75 0 0 0 7.857.25v1.5Zm-.249 10.917-1.347-2.4L7.548 8h-1.1l-.7 1.407L5.075 8h-1.14l1.28 2.334-1.34 2.333H5.02l.714-1.427.686 1.427h1.187Zm1.797-.8V8h-1v4.667h3.067v-.8H9.405Zm4.625.867c1.026 0 1.673-.554 1.673-1.434 0-.693-.427-1.153-1.3-1.386l-.447-.12c-.4-.107-.553-.254-.553-.534 0-.3.26-.5.653-.5.34 0 .613.22.68.56l.853-.4c-.12-.586-.746-.986-1.546-.986-.96 0-1.64.58-1.64 1.386 0 .7.406 1.147 1.246 1.374l.447.12c.447.12.607.28.607.58 0 .32-.254.513-.674.513-.426 0-.653-.193-.88-.767l-.833.487c.247.74.82 1.107 1.713 1.107Z" fill="#000"/></svg>
